docs/img/cluster-knative.svg

<?xml version="1.0" encoding="UTF-8" standalone="no"?>
<svg
   xmlns:dc="http://purl.org/dc/elements/1.1/"
   xmlns:cc="http://creativecommons.org/ns#"
   xmlns:rdf="http://www.w3.org/1999/02/22-rdf-syntax-ns#"
   xmlns:svg="http://www.w3.org/2000/svg"
   xmlns="http://www.w3.org/2000/svg"
   xmlns:sodipodi="http://sodipodi.sourceforge.net/DTD/sodipodi-0.dtd"
   xmlns:inkscape="http://www.inkscape.org/namespaces/inkscape"
   height="40"
   viewBox="0 0 60 40"
   width="60"
   version="1.1"
   id="svg36"
   sodipodi:docname="cluster-knative.svg"
   inkscape:version="1.0.1 (3bc2e813f5, 2020-09-07)">
  <sodipodi:namedview
     pagecolor="#ffffff"
     bordercolor="#666666"
     borderopacity="1"
     objecttolerance="10"
     gridtolerance="10"
     guidetolerance="10"
     inkscape:pageopacity="0"
     inkscape:pageshadow="2"
     inkscape:window-width="1920"
     inkscape:window-height="1016"
     id="namedview191"
     showgrid="false"
     inkscape:zoom="14.03607"
     inkscape:cx="0.79659713"
     inkscape:cy="11.118363"
     inkscape:window-x="0"
     inkscape:window-y="0"
     inkscape:window-maximized="1"
     inkscape:current-layer="g1042"
     inkscape:document-rotation="0" />
  <metadata
     id="metadata42">
    <rdf:RDF>
      <cc:Work
         rdf:about="">
        <dc:format>image/svg+xml</dc:format>
        <dc:type
           rdf:resource="http://purl.org/dc/dcmitype/StillImage" />
        <dc:title />
      </cc:Work>
    </rdf:RDF>
  </metadata>
  <defs
     id="defs40">
    <mask
       id="a-1"
       fill="#ffffff">
      <path
         d="M 0,0 H 313.30315 V 159.86486 H 0 Z"
         fill="#ffffff"
         fill-rule="evenodd"
         id="path2-9" />
    </mask>
    <mask
       id="mask865"
       fill="#ffffff">
      <path
         d="M 0,0 H 313.30315 V 159.86486 H 0 Z"
         fill="#ffffff"
         fill-rule="evenodd"
         id="path863" />
    </mask>
  </defs>
  <mask
     id="a"
     fill="#ffffff">
    <path
       d="M 0,0 H 313.30315 V 159.86486 H 0 Z"
       fill="#ffffff"
       fill-rule="evenodd"
       id="path2" />
  </mask>
  <mask
     id="b"
     fill="#ffffff">
    <path
       d="M 0,0 H 313.30315 V 159.86486 H 0 Z"
       fill="#ffffff"
       fill-rule="evenodd"
       id="path5" />
  </mask>
  <g
     id="g1042"
     style="display:inline">
    <g
       id="g994"
       transform="matrix(0.08667043,0,0,0.08667043,54.837532,-43.975856)"
       style="display:inline">
      <path
         id="path990"
         style="fill:#000e44;fill-opacity:1;fill-rule:evenodd;stroke:none;stroke-width:3.14747"
         d="m 56.695351,510.77372 -107.53235,84.40183 -79.398391,-66.27467 61.189259,82.84335 -54.627399,74.39502 72.836531,-52.98696 102.528945,91.04567 -81.03891,-107.53235 z" />
    </g>
    <circle
       style="opacity:1;fill:#ababf7;fill-opacity:1;stroke:none;stroke-width:0.308165;stroke-miterlimit:2.5;stroke-opacity:1;stop-color:#000000"
       id="path912"
       cx="16.627409"
       cy="16.633268"
       r="16.433828" />
    <g
       fill="none"
       fill-rule="evenodd"
       transform="matrix(0.15069337,0,0,0.15069337,-6.1976669,-20.880758)"
       id="g1008">
      <g
         transform="matrix(0.92863152,0,0,-0.92863152,9.2718211,454.1644)"
         id="g1006">
        <g
           fill="#0f1689"
           mask="url(#a-1)"
           id="g1002"
           style="fill:#6f0f0c;fill-opacity:1"
           transform="matrix(0.94489362,0,0,0.94489362,8.6962507,2.7018401)">
          <path
             d="m 203.46068,95.687543 c 6.93631,0 12.5593,-14.80922 12.5593,-33.077318 0,-18.268097 -5.62299,-33.077317 -12.5593,-33.077317 -6.93631,0 -12.55931,14.80922 -12.55931,33.077317 0,18.268098 5.62299,33.077318 12.55931,33.077318 z"
             transform="rotate(35,137.93117,151.55002)"
             id="path996"
             style="fill:#0f0c6f;fill-opacity:1" />
          <path
             d="m 30.142322,95.687543 c 6.936311,0 12.559301,-14.80922 12.559301,-33.077318 0,-18.268097 -5.62299,-33.077317 -12.559301,-33.077317 -6.93631,0 -12.559301,14.80922 -12.559301,33.077317 0,18.268098 5.622991,33.077318 12.559301,33.077318 z"
             transform="matrix(-0.81915204,0.57357644,0.57357644,0.81915204,58.084611,47.704768)"
             id="path998"
             style="fill:#0f0c6f;fill-opacity:1" />
          <path
             d="m 116.73282,66.275268 c 6.93631,0 12.5593,-14.80922 12.5593,-33.077318 0,-18.268097 -5.62299,-33.07731673 -12.55931,-33.07731673 -6.93631,0 -12.5593,14.80921973 -12.5593,33.07731673 0,18.268098 5.62299,33.077318 12.55931,33.077318 z"
             transform="matrix(-1,0,0,1,272.62852,53.670762)"
             id="path1000"
             style="fill:#0f0c6f;fill-opacity:1" />
        </g>
        <path
           d="m 251.46701,173.09985 c -20.23008,-33.60997 -56.88957,-56.06791 -98.75578,-56.06791 -40.7208,0 -76.515877,21.2459 -97.058696,53.33459"
           mask="url(#a-1)"
           stroke="#0f1689"
           stroke-width="20"
           id="path1004"
           style="stroke:#0f0c6f;stroke-opacity:1"
           transform="matrix(0.94489362,0,0,0.94489362,8.6962507,2.7018401)" />
      </g>
    </g>
    <g
       id="g1480" />
    <g
       id="g24"
       transform="matrix(0.03653614,0,0,-0.03653614,5.532657,26.776463)">
      <g
         id="g22" />
    </g>
    <g
       id="g26"
       transform="matrix(0.03653614,0,0,-0.03653614,-34.467343,26.918953)" />
    <g
       id="g28"
       transform="matrix(0.03653614,0,0,-0.03653614,-34.467343,26.918953)" />
    <g
       id="g30"
       transform="matrix(0.03653614,0,0,-0.03653614,-34.467343,26.918953)" />
    <g
       id="g32"
       transform="matrix(0.03653614,0,0,-0.03653614,-34.467343,26.918953)" />
    <g
       id="g34"
       transform="matrix(0.03653614,0,0,-0.03653614,-34.467343,26.918953)" />
    <g
       id="g36"
       transform="matrix(0.03653614,0,0,-0.03653614,-34.467343,26.918953)" />
    <g
       id="g38"
       transform="matrix(0.03653614,0,0,-0.03653614,-34.467343,26.918953)" />
    <g
       id="g40"
       transform="matrix(0.03653614,0,0,-0.03653614,-34.467343,26.918953)" />
    <g
       id="g42"
       transform="matrix(0.03653614,0,0,-0.03653614,-34.467343,26.918953)" />
    <g
       id="g44"
       transform="matrix(0.03653614,0,0,-0.03653614,-34.467343,26.918953)" />
    <g
       id="g46"
       transform="matrix(0.03653614,0,0,-0.03653614,-34.467343,26.918953)" />
    <g
       id="g48"
       transform="matrix(0.03653614,0,0,-0.03653614,-34.467343,26.918953)" />
    <g
       id="g50"
       transform="matrix(0.03653614,0,0,-0.03653614,-34.467343,26.918953)" />
    <g
       id="g52"
       transform="matrix(0.03653614,0,0,-0.03653614,-34.467343,26.918953)" />
    <g
       id="g54"
       transform="matrix(0.03653614,0,0,-0.03653614,-34.467343,26.918953)" />
    <path
       sodipodi:type="star"
       style="display:inline;opacity:1;fill:#0f0c6f;fill-opacity:1;stroke:none;stroke-width:0.613787;stroke-miterlimit:2.5;enable-background:new;stop-color:#000000"
       id="path840"
       sodipodi:sides="7"
       sodipodi:cx="26.288328"
       sodipodi:cy="27.610167"
       sodipodi:r1="26.077244"
       sodipodi:r2="23.494783"
       sodipodi:arg1="1.1121612"
       sodipodi:arg2="1.5609602"
       inkscape:flatsided="true"
       inkscape:rounded="0"
       inkscape:randomized="0"
       d="M 37.833368,50.992525 15.205479,51.215104 0.92320095,33.662684 5.7413815,11.552594 26.031832,1.5341842 46.515429,11.151521 51.767607,33.162553 Z"
       inkscape:transform-center-x="0.000325822"
       inkscape:transform-center-y="-0.15938817"
       transform="matrix(0.46744414,0.00480936,-0.00480936,0.46744414,4.484346,2.3395072)" />
    <g
       aria-label="K"
       transform="matrix(0.4271273,0,0,0.51298179,4.348696,2.466317)"
       id="text844"
       style="font-style:normal;font-variant:normal;font-weight:bold;font-stretch:normal;font-size:26.4469px;line-height:1.25;font-family:sans-serif;-inkscape-font-specification:'sans-serif Bold';font-variant-ligatures:normal;font-variant-caps:normal;font-variant-numeric:normal;font-feature-settings:normal;text-align:start;letter-spacing:0px;word-spacing:0px;writing-mode:lr-tb;text-anchor:start;display:inline;opacity:1;fill:#dedede;fill-opacity:1;stroke:none;stroke-width:2.20392;enable-background:new">
      <path
         d="m 33.597798,35.433479 h 4.998464 L 30.477063,25.172082 38.146664,16.92065 h -4.760442 l -8.198538,8.648136 V 16.92065 h -4.257951 v 18.512829 h 4.257951 v -4.681101 l 2.486008,-2.591796 z"
         style="font-style:normal;font-variant:normal;font-weight:bold;font-stretch:normal;font-family:Montserrat;-inkscape-font-specification:'Montserrat Bold';fill:#dedede;fill-opacity:1;stroke-width:2.20392"
         id="path846" />
    </g>
  </g>
  <g
     transform="matrix(0.95879878,0,0,0.95879878,-871.34292,-378.35028)"
     id="g893" />
</svg>

<?xml version="1.0" encoding="UTF-8"?>
<svg width="40" height="40" version="1.1" viewBox="0 0 40 40" xmlns="http://www.w3.org/2000/svg" xmlns:cc="http://creativecommons.org/ns#" xmlns:dc="http://purl.org/dc/elements/1.1/" xmlns:rdf="http://www.w3.org/1999/02/22-rdf-syntax-ns#"><metadata><rdf:RDF><cc:Work rdf:about=""><dc:format>image/svg+xml</dc:format><dc:type rdf:resource="http://purl.org/dc/dcmitype/StillImage"/><dc:title/></cc:Work></rdf:RDF></metadata><defs><mask id="c" fill="#ffffff"><path d="m0 0h313.3v159.86h-313.3z" fill="#fff" fill-rule="evenodd"/></mask></defs><mask id="a" fill="#ffffff"><path d="m0 0h313.3v159.86h-313.3z" fill="#fff" fill-rule="evenodd"/></mask><mask id="b" fill="#ffffff"><path d="m0 0h313.3v159.86h-313.3z" fill="#fff" fill-rule="evenodd"/></mask><g><g transform="matrix(.036536 0 0 -.036536 5.5327 26.776)"></g><g transform="translate(.39981 .16172)"><g transform="matrix(.49527 0 0 .49527 5.0758 3.2126)"><g transform="matrix(1.7758,0,0,1.7758,-164.24,-70.425)"><g transform="translate(96.564,87.836)" fill="#66ff9a" stroke-width="3.24"><polygon class="st0" transform="matrix(.72255 0 0 .7031 -28.717 -125.97)" points="55.7 105.5 78.4 118.6 78.4 144.9 55.7 158 32.9 144.9 32.9 118.6" fill="#ababf7"/></g><g transform="matrix(.15831 0 0 .15831 83.649 18.463)" fill="#005e20" fill-rule="evenodd"><g transform="matrix(1.0777,0,0,-1.0777,-10.799,451.79)"><g transform="matrix(.94489 0 0 .94489 8.6963 2.7018)" fill="#0f0c6f" mask="url(#c)"><path transform="rotate(35,137.93,151.55)" d="m203.46 95.688c6.9363 0 12.559-14.809 12.559-33.077s-5.623-33.077-12.559-33.077-12.559 14.809-12.559 33.077 5.623 33.077 12.559 33.077z"/><path transform="matrix(-.81915 .57358 .57358 .81915 58.085 47.705)" d="m30.142 95.688c6.9363 0 12.559-14.809 12.559-33.077s-5.623-33.077-12.559-33.077c-6.9363 0-12.559 14.809-12.559 33.077s5.623 33.077 12.559 33.077z"/><path d="m153.24 119.95c-6.9363 0-12.559-14.809-12.559-33.077s5.623-33.077 12.559-33.077c6.9363 0 12.559 14.809 12.559 33.077s-5.623 33.077-12.559 33.077z"/></g><path transform="matrix(.94489 0 0 .94489 8.6963 2.7018)" d="m251.47 173.1c-20.23-33.61-56.89-56.068-98.756-56.068-40.721 0-76.516 21.246-97.059 53.335" fill="none" mask="url(#c)" stroke="#0f0c6f" stroke-width="19.999"/></g></g></g></g></g><path transform="matrix(.46744 .0048094 -.0048094 .46744 7.0032 2.4151)" d="m37.833 50.993-22.628 0.22258-14.282-17.552 4.8182-22.11 20.29-10.018 20.484 9.6173 5.2522 22.011z" enable-background="new" fill="#0f0c6f" stop-color="#000000"/><g transform="matrix(.42713 0 0 .51298 6.8676 2.5419)" enable-background="new" fill="#dedede" style="font-feature-settings:normal;font-variant-caps:normal;font-variant-ligatures:normal;font-variant-numeric:normal" aria-label="K"><path d="m33.598 35.433h4.9985l-8.1192-10.261 7.6696-8.2514h-4.7604l-8.1985 8.6481v-8.6481h-4.258v18.513h4.258v-4.6811l2.486-2.5918z" fill="#dedede" stroke-width="2.2039"/></g></g></svg>
